svg/groups/hang-tag.svg

<svg xmlns="http://www.w3.org/2000/svg" viewBox="0 0 16 16"><title>hang-tag</title><g id="Layer_1" data-name="Layer 1"><g id="Layer_5" data-name="Layer 5"><path d="M7.543,15.93a1.292,1.292,0,0,1-.917-.379L.4,9.327a1.3,1.3,0,0,1,0-1.833L7.446.45a1.309,1.309,0,0,1,1.1-.367l5.39.849a1.294,1.294,0,0,1,1.091,1.1L15.87,7.4A1.3,1.3,0,0,1,15.508,8.5L8.46,15.551A1.292,1.292,0,0,1,7.543,15.93Zm.144-1.44h0ZM1.606,8.411l5.937,5.936L14.371,7.52l-.809-5.128L8.434,1.583Zm12.1-6,.009,0Zm-.165-.159v0Z"/><path d="M10.643,7.05a1.872,1.872,0,0,1-1.325-3.2,1.918,1.918,0,0,1,2.649,0,1.876,1.876,0,0,1,0,2.648h0A1.864,1.864,0,0,1,10.643,7.05ZM11.5,6.033h0Zm-.854-1.4a.537.537,0,0,0-.385.159.544.544,0,1,0,.769.77h0a.546.546,0,0,0,0-.77A.537.537,0,0,0,10.643,4.634Z"/></g></g></svg>

<svg xmlns="http://www.w3.org/2000/svg" viewBox="0 0 16 16"><title>hang-tag</title><g id="Layer_1" data-name="Layer 1"><g id="Layer_5" data-name="Layer 5"><path d="M7.54,15.93a1.29,1.29,0,0,1-.91-.38L.4,9.33a1.32,1.32,0,0,1,0-1.84l7.05-7A1.29,1.29,0,0,1,8.54.08l5.39.85A1.28,1.28,0,0,1,15,2l.85,5.36a1.3,1.3,0,0,1-.36,1.1l-7,7.05A1.29,1.29,0,0,1,7.54,15.93Zm.15-1.44h0ZM1.61,8.41l5.93,5.94,6.83-6.83-.81-5.13L8.43,1.58Zm12.1-6h0Zm-.17-.16h0Z"/><path d="M10.64,7.05A1.83,1.83,0,0,1,9.32,6.5a1.88,1.88,0,0,1,0-2.65,1.93,1.93,0,0,1,2.65,0A1.88,1.88,0,0,1,12,6.5h0A1.87,1.87,0,0,1,10.64,7.05Zm.86-1h0Zm-.86-1.4a.55.55,0,0,0-.38.93.53.53,0,0,0,.77,0h0a.55.55,0,0,0,0-.77A.57.57,0,0,0,10.64,4.63Z"/></g></g></svg>
